X:3
T:Blue Bossa
C:Kenny Dorham
L:1/8
M:C
I:linebreak $
K:Eb
"Cm" g3 f e d3 | c4 z2 B2 |"Fm" A4 g4 | f8 |$"Dø" f3 e d c3 |"G7" =B4 z2 A2 |"Cm" G4 f4 | e8 ||$
[K:Db]"Ebm" e3 d c B3 |"Ab7" A4 z2 G2 |"Db" G F3 B3 F | A8 ||$[K:Eb]"Dø" A G3 B2 A2 |
"G7" A G3 B2 A2 |"Cm" G8 | z8 |]

